lib/brands/icons/maze.svg

<svg xmlns="http://www.w3.org/2000/svg" fill="none" aria-hidden="true" viewBox="0 0 48 48"><g id="maze-Icon"><path id="Vector" fill="#0568FD" fill-rule="evenodd" d="M5.87665 31.5784C3.37442 29.0982 3.37446 25.0769 5.87672 22.5967L12.673 15.8602C14.7883 13.7635 18.0147 13.4392 20.4736 14.8874C21.2342 15.3353 21.2275 16.3629 20.6019 16.9829C19.9763 17.603 18.9552 17.5496 18.1061 17.3035C17.0187 16.9882 15.796 17.2556 14.9384 18.1057L8.14213 24.8421C6.891 26.0822 6.89098 28.0928 8.14209 29.333C9.39324 30.5732 11.4218 30.5732 12.6729 29.333L26.2653 15.8603C28.7677 13.38 32.8247 13.38 35.3269 15.8603L42.1232 22.5967C44.6256 25.0768 44.6256 29.0982 42.1232 31.5784C39.621 34.0587 35.564 34.0587 33.0617 31.5784L30.7962 29.333L27.9645 32.1398C25.8492 34.2365 22.6229 34.5607 20.1639 33.1126C19.4033 32.6647 19.41 31.6372 20.0356 31.0171C20.6612 30.397 21.6823 30.4503 22.5314 30.6965C23.6187 31.0117 24.8415 30.7443 25.6991 29.8943L28.6117 27.0073C29.8182 25.8115 31.7743 25.8115 32.9808 27.0073L35.3271 29.333C36.5782 30.5731 38.6067 30.5731 39.8579 29.333C41.109 28.0928 41.109 26.0822 39.8578 24.8421L33.0616 18.1057C31.8104 16.8656 29.7819 16.8656 28.5307 18.1057L14.9383 31.5785C12.436 34.0587 8.37894 34.0587 5.87665 31.5784Z" clip-rule="evenodd"/></g></svg>

<svg xmlns="http://www.w3.org/2000/svg" fill="none" aria-hidden="true" viewBox="0 0 48 48"><path fill="#0568FD" fill-rule="evenodd" d="M5.877 31.578a6.312 6.312 0 0 1 0-8.981l6.796-6.737c2.115-2.096 5.342-2.42 7.8-.973.761.448.755 1.476.129 2.096-.626.62-1.647.567-2.496.32a3.223 3.223 0 0 0-3.168.803l-6.796 6.736a3.156 3.156 0 0 0 0 4.491 3.224 3.224 0 0 0 4.53 0L26.266 15.86c2.503-2.48 6.56-2.48 9.062 0l6.796 6.737a6.311 6.311 0 0 1 0 8.981c-2.502 2.48-6.559 2.48-9.061 0l-2.266-2.245-2.831 2.807c-2.116 2.096-5.342 2.42-7.801.973-.76-.448-.754-1.476-.128-2.096.625-.62 1.646-.567 2.495-.32a3.223 3.223 0 0 0 3.168-.803l2.913-2.887a3.109 3.109 0 0 1 4.369 0l2.346 2.326a3.224 3.224 0 0 0 4.53 0 3.156 3.156 0 0 0 0-4.49l-6.795-6.737a3.224 3.224 0 0 0-4.531 0L14.938 31.578c-2.502 2.48-6.56 2.48-9.061 0Z" clip-rule="evenodd"/></svg>
